X:1
T:Annie Laurie.
T:Annie Laurie.
T:music: [Alicia] Lady John Scott 1834/5 words: [William] Douglass of Fingland (1672?-1748)
C:music: [Alicia] Lady John Scott 1834/5
C:words: [William] Douglass of Fingland (1672?-1748)
L:1/8
M:4/4
K:C
V:1 treble 
V:1
 [CE]>[B,D] | [CC]3 [CC] [Ec]3 [GB] | [GB]2 [FA]4 [FA]2 | [EG]3 [CE] ([CE]2 [B,D])[CC] | %4
w: 1.~Max- *|wel- ton's braes are|bon- nie, Where|ear- ly fa's * the|
w: 2.~Her *|brow is like the|snaw- drift, Her|throat is like * the|
w: 3.~Like *|dew on th'gow- an|ly- ing Is~th'|fa'~o' her fair- * y|
 [B,D]6 ([B,E]>[B,D]) | [CC]3 [CC] [Ec]3 [GB] | [GB]2 [FA]4 [FA]2 | [EG]3 [CE] [B,D]3 [CC] | %8
w: dew, And 'twas|there that An- nie|Lau- rit Gi'ed|me her prom- ise|
w: swan, Her *|face it is the|fair- est That|e'er the sun shone|
w: feet, And like|winds in sm- mer|sigh- ing, Her|voice is low and|
 [CC]4 z2 [EG]2 | [Ec]3 [Ec] [Gd]3 [Gd] | [ce]6 [EG]2 | [Ec]3 [Ec] [Fd]3 [Ad] | [^Ge]6 [=Ge]>[Fd] | %13
w: true; Gi'ed|me her prom- ise|true, Which|ne'er for- got will|be, And for|
w: on; That|e'er the sun shone|on, And|dark blue is her|e'e, And for|
w: sweet; Her|voice is low and|sweet, And|she's a'~the world to|me, And for|
 [Ec]3 [GB] [FA]2 ([Fc]A) | [EG]2 [CE]4 ([CE]>[B,D]) | ([CC] [Ec]2) [CE] [B,D]3 [CC] | %16
w: bon- nie An- nie *|Lau- rie, I'd *|lay * me doon and|
w: |||
w: |||
 [CC-]4 [CC] z |] %17
w: dee..... *|
w: |
w: |

